assets/insufficient_balance.svg

<svg fill="none" height="80" viewBox="0 0 92 80" width="92" xmlns="http://www.w3.org/2000/svg" xmlns:xlink="http://www.w3.org/1999/xlink"><linearGradient id="a"><stop offset="0" stop-color="#00a1cc"/><stop offset="1" stop-color="#0e83a3"/></linearGradient><linearGradient id="b" gradientUnits="userSpaceOnUse" x1="45.7341" x2="45.7341" xlink:href="#a" y1="63.9082" y2="74.2216"/><linearGradient id="c" gradientUnits="userSpaceOnUse" x1="45.7341" x2="45.7341" xlink:href="#a" y1="51.1836" y2="61.497"/><linearGradient id="d" gradientUnits="userSpaceOnUse" x1="52.0474" x2="52.0474" xlink:href="#a" y1="35.2773" y2="48.8679"/><linearGradient id="e" gradientUnits="userSpaceOnUse" x1="52.0474" x2="52.0474" xlink:href="#a" y1="22.5547" y2="36.0489"/><linearGradient id="f" gradientUnits="userSpaceOnUse" x1="47.0381" x2="47.0381" xlink:href="#a" y1="9.83008" y2="23.3243"/><linearGradient id="g" gradientUnits="userSpaceOnUse" x1="47.0381" x2="47.0381" xlink:href="#a" y1="0" y2="10.6026"/><linearGradient id="h" gradientUnits="userSpaceOnUse" x1="18.0244" x2="18.0244" xlink:href="#a" y1="66.5059" y2="80"/><linearGradient id="i" gradientUnits="userSpaceOnUse" x1="18.0244" x2="18.0244" xlink:href="#a" y1="53.8789" y2="67.3731"/><linearGradient id="j" gradientUnits="userSpaceOnUse" x1="18.0244" x2="18.0244" xlink:href="#a" y1="41.1562" y2="54.6504"/><linearGradient id="k" gradientUnits="userSpaceOnUse" x1="18.0244" x2="18.0244" xlink:href="#a" y1="28.4336" y2="41.9278"/><linearGradient id="l" gradientUnits="userSpaceOnUse" x1="18.0244" x2="18.0244" xlink:href="#a" y1="18.6016" y2="29.2041"/><linearGradient id="m" gradientUnits="userSpaceOnUse" x1="73.5439" x2="73.5439" xlink:href="#a" y1="66.5059" y2="80"/><linearGradient id="n" gradientUnits="userSpaceOnUse" x1="73.5439" x2="73.5439" xlink:href="#a" y1="53.8789" y2="67.3731"/><linearGradient id="o" gradientUnits="userSpaceOnUse" x1="73.5439" x2="73.5439" xlink:href="#a" y1="43.9512" y2="54.5537"/><path d="m39.0352 63.9082v9.6387c2.3132.3856 5.0121.6747 8.0001.6747 1.9277 0 3.7591-.0964 5.3977-.2891v-9.6388c-1.735.1928-3.5664.2892-5.3977.2892-2.6989-.0964-5.3977-.2891-8.0001-.6747z" fill="url(#b)"/><path d="m39.0352 51.1836v9.6387c2.3132.3855 5.0121.6747 8.0001.6747 1.9277 0 3.7591-.0964 5.3977-.2892v-9.6387c-1.735.1928-3.5664.2892-5.3977.2892-2.6989-.0964-5.3977-.2892-8.0001-.6747z" fill="url(#c)"/><path d="m65.0597 35.2773c-3.8555 2.5061-10.9882 3.8555-18.0244 3.8555-2.6989 0-5.4941-.1927-8.0001-.5783v9.6387c2.3132.3856 5.0121.6747 8.0001.6747 1.9277 0 3.8555-.0964 5.494-.2891.7711-3.47 5.976-5.7833 12.5304-6.8435z" fill="url(#d)"/><path d="m39.0352 25.7355v9.6387c2.3132.3855 5.0121.6747 8.0001.6747 10.9881 0 18.0244-3.0844 18.0244-5.3013v-8.1929c-3.8555 2.5061-10.9882 3.8555-18.0244 3.8555-2.6989-.0964-5.3977-.2892-8.0001-.6747z" fill="url(#e)"/><path d="m65.0624 18.023v-8.19292c-3.8555 2.50602-10.9881 3.85552-18.0243 3.85552-7.0363 0-14.1689-1.2531-18.0244-3.85552v6.84352c5.0121 1.1566 8.964 3.1807 9.8315 5.976 2.4096.3855 5.2049.6747 8.1929.6747 11.0845 0 18.0243-3.1808 18.0243-5.3013z" fill="url(#f)"/><path d="m47.1344 10.6026c10.9882 0 17.928-3.1808 17.928-5.30131 0-2.12052-7.0362-5.30129-18.0243-5.30129-10.9882 0-18.0244 3.18077-18.0244 5.30129 0 2.12051 7.0362 5.30131 18.1207 5.30131z" fill="url(#g)"/><path d="m0 66.6022v8.0966c0 2.1205 7.03626 5.3012 18.0244 5.3012 10.9881 0 18.0244-3.1807 18.0244-5.3012v-8.1929c-3.8555 2.506-10.9882 3.8554-18.0244 3.8554-7.0363 0-14.16892-1.3494-18.0244-3.7591z" fill="url(#h)"/><path d="m0 53.8789v8.1929c0 2.1205 7.03626 5.3013 18.0244 5.3013 10.9881 0 18.0244-3.1808 18.0244-5.3013v-8.1929c-3.8555 2.5061-10.9882 3.8555-18.0244 3.8555-7.0363 0-14.16892-1.3494-18.0244-3.8555z" fill="url(#i)"/><path d="m0 41.1562v8.1929c0 2.1206 7.03626 5.3013 18.0244 5.3013 10.9881 0 18.0244-3.1807 18.0244-5.3013v-8.1929c-3.8555 2.5061-10.9882 3.8555-18.0244 3.8555-7.0363 0-14.16892-1.3494-18.0244-3.8555z" fill="url(#j)"/><path d="m0 28.4336v8.1929c0 2.1205 7.03626 5.3013 18.0244 5.3013 10.9881 0 18.0244-3.1808 18.0244-5.3013v-8.1929c-3.8555 2.5061-10.9882 3.8555-18.0244 3.8555-7.0363 0-14.16892-1.3494-18.0244-3.8555z" fill="url(#k)"/><path d="m18.0244 18.6016c-10.98814 0-18.0244 3.0843-18.0244 5.3013 0 2.1205 7.03626 5.3012 18.0244 5.3012 10.9881 0 18.0244-3.1807 18.0244-5.3012 0-2.217-7.0363-5.3013-18.0244-5.3013z" fill="url(#l)"/><path d="m55.5195 66.6022v8.0966c0 2.1205 7.0363 5.3012 18.0244 5.3012s18.0244-3.1807 18.0244-5.3012v-8.1929c-3.8555 2.506-10.9881 3.8554-18.0244 3.8554-7.0362 0-14.0725-1.3494-18.0244-3.7591z" fill="url(#m)"/><path d="m55.5195 53.8789v8.1929c0 2.1205 7.0363 5.3013 18.0244 5.3013s18.0244-3.1808 18.0244-5.3013v-8.1929c-3.8555 2.5061-10.9881 3.8555-18.0244 3.8555-7.0362-.0964-14.0725-1.3494-18.0244-3.8555z" fill="url(#n)"/><path d="m55.5195 49.2525c0 2.1205 7.0363 5.3012 18.0244 5.3012s18.0244-3.1807 18.0244-5.3012c0-2.1206-7.0363-5.3013-18.0244-5.3013-10.9881.0964-18.0244 3.1807-18.0244 5.3013z" fill="url(#o)"/></svg>

<svg width="92" height="80" viewBox="0 0 92 80" fill="none" xmlns="http://www.w3.org/2000/svg">
<path d="M39.0352 63.9082V73.5469C41.3484 73.9325 44.0473 74.2216 47.0353 74.2216C48.963 74.2216 50.7944 74.1252 52.433 73.9325V64.2937C50.698 64.4865 48.8666 64.5829 47.0353 64.5829C44.3364 64.4865 41.6376 64.2938 39.0352 63.9082Z" fill="url(#paint0_linear_5277_17188)"/>
<path d="M39.0352 51.1836V60.8223C41.3484 61.2078 44.0473 61.497 47.0353 61.497C48.963 61.497 50.7944 61.4006 52.433 61.2078V51.5691C50.698 51.7619 48.8666 51.8583 47.0353 51.8583C44.3364 51.7619 41.6376 51.5691 39.0352 51.1836Z" fill="url(#paint1_linear_5277_17188)"/>
<path d="M65.0597 35.2773C61.2042 37.7834 54.0715 39.1328 47.0353 39.1328C44.3364 39.1328 41.5412 38.9401 39.0352 38.5545V48.1932C41.3484 48.5788 44.0473 48.8679 47.0353 48.8679C48.963 48.8679 50.8908 48.7715 52.5293 48.5788C53.3004 45.1088 58.5053 42.7955 65.0597 41.7353V35.2773Z" fill="url(#paint2_linear_5277_17188)"/>
<path d="M39.0352 25.7355V35.3742C41.3484 35.7597 44.0473 36.0489 47.0353 36.0489C58.0234 36.0489 65.0597 32.9645 65.0597 30.7476V22.5547C61.2042 25.0608 54.0715 26.4102 47.0353 26.4102C44.3364 26.3138 41.6376 26.121 39.0352 25.7355Z" fill="url(#paint3_linear_5277_17188)"/>
<path d="M65.0624 18.023V9.83008C61.2069 12.3361 54.0743 13.6856 47.0381 13.6856C40.0018 13.6856 32.8692 12.4325 29.0137 9.83008V16.6736C34.0258 17.8302 37.9777 19.8543 38.8452 22.6496C41.2548 23.0351 44.0501 23.3243 47.0381 23.3243C58.1226 23.3243 65.0624 20.1435 65.0624 18.023Z" fill="url(#paint4_linear_5277_17188)"/>
<path d="M47.1344 10.6026C58.1226 10.6026 65.0624 7.4218 65.0624 5.30129C65.0624 3.18077 58.0262 0 47.0381 0C36.0499 0 29.0137 3.18077 29.0137 5.30129C29.0137 7.4218 36.0499 10.6026 47.1344 10.6026Z" fill="url(#paint5_linear_5277_17188)"/>
<path d="M0 66.6022V74.6988C0 76.8193 7.03626 80 18.0244 80C29.0125 80 36.0488 76.8193 36.0488 74.6988V66.5059C32.1933 69.0119 25.0606 70.3613 18.0244 70.3613C10.9881 70.3613 3.85548 69.0119 0 66.6022Z" fill="url(#paint6_linear_5277_17188)"/>
<path d="M0 53.8789V62.0718C0 64.1923 7.03626 67.3731 18.0244 67.3731C29.0125 67.3731 36.0488 64.1923 36.0488 62.0718V53.8789C32.1933 56.385 25.0606 57.7344 18.0244 57.7344C10.9881 57.7344 3.85548 56.385 0 53.8789Z" fill="url(#paint7_linear_5277_17188)"/>
<path d="M0 41.1562V49.3491C0 51.4697 7.03626 54.6504 18.0244 54.6504C29.0125 54.6504 36.0488 51.4697 36.0488 49.3491V41.1562C32.1933 43.6623 25.0606 45.0117 18.0244 45.0117C10.9881 45.0117 3.85548 43.6623 0 41.1562Z" fill="url(#paint8_linear_5277_17188)"/>
<path d="M0 28.4336V36.6265C0 38.747 7.03626 41.9278 18.0244 41.9278C29.0125 41.9278 36.0488 38.747 36.0488 36.6265V28.4336C32.1933 30.9397 25.0606 32.2891 18.0244 32.2891C10.9881 32.2891 3.85548 30.9397 0 28.4336Z" fill="url(#paint9_linear_5277_17188)"/>
<path d="M18.0244 18.6016C7.03626 18.6016 0 21.6859 0 23.9029C0 26.0234 7.03626 29.2041 18.0244 29.2041C29.0125 29.2041 36.0488 26.0234 36.0488 23.9029C36.0488 21.6859 29.0125 18.6016 18.0244 18.6016Z" fill="url(#paint10_linear_5277_17188)"/>
<path d="M55.5195 66.6022V74.6988C55.5195 76.8193 62.5558 80 73.5439 80C84.532 80 91.5683 76.8193 91.5683 74.6988V66.5059C87.7128 69.0119 80.5802 70.3613 73.5439 70.3613C66.5077 70.3613 59.4714 69.0119 55.5195 66.6022Z" fill="url(#paint11_linear_5277_17188)"/>
<path d="M55.5195 53.8789V62.0718C55.5195 64.1923 62.5558 67.3731 73.5439 67.3731C84.532 67.3731 91.5683 64.1923 91.5683 62.0718V53.8789C87.7128 56.385 80.5802 57.7344 73.5439 57.7344C66.5077 57.638 59.4714 56.385 55.5195 53.8789Z" fill="url(#paint12_linear_5277_17188)"/>
<path d="M55.5195 49.2525C55.5195 51.373 62.5558 54.5537 73.5439 54.5537C84.532 54.5537 91.5683 51.373 91.5683 49.2525C91.5683 47.1319 84.532 43.9512 73.5439 43.9512C62.5558 44.0476 55.5195 47.1319 55.5195 49.2525Z" fill="url(#paint13_linear_5277_17188)"/>
<defs>
<linearGradient id="paint0_linear_5277_17188" x1="45.7341" y1="63.9082" x2="45.7341" y2="74.2216" gradientUnits="userSpaceOnUse">
<stop stop-color="#00A1CC"/>
<stop offset="1" stop-color="#0E83A3"/>
</linearGradient>
<linearGradient id="paint1_linear_5277_17188" x1="45.7341" y1="51.1836" x2="45.7341" y2="61.497" gradientUnits="userSpaceOnUse">
<stop stop-color="#00A1CC"/>
<stop offset="1" stop-color="#0E83A3"/>
</linearGradient>
<linearGradient id="paint2_linear_5277_17188" x1="52.0474" y1="35.2773" x2="52.0474" y2="48.8679" gradientUnits="userSpaceOnUse">
<stop stop-color="#00A1CC"/>
<stop offset="1" stop-color="#0E83A3"/>
</linearGradient>
<linearGradient id="paint3_linear_5277_17188" x1="52.0474" y1="22.5547" x2="52.0474" y2="36.0489" gradientUnits="userSpaceOnUse">
<stop stop-color="#00A1CC"/>
<stop offset="1" stop-color="#0E83A3"/>
</linearGradient>
<linearGradient id="paint4_linear_5277_17188" x1="47.0381" y1="9.83008" x2="47.0381" y2="23.3243" gradientUnits="userSpaceOnUse">
<stop stop-color="#00A1CC"/>
<stop offset="1" stop-color="#0E83A3"/>
</linearGradient>
<linearGradient id="paint5_linear_5277_17188" x1="47.0381" y1="0" x2="47.0381" y2="10.6026" gradientUnits="userSpaceOnUse">
<stop stop-color="#00A1CC"/>
<stop offset="1" stop-color="#0E83A3"/>
</linearGradient>
<linearGradient id="paint6_linear_5277_17188" x1="18.0244" y1="66.5059" x2="18.0244" y2="80" gradientUnits="userSpaceOnUse">
<stop stop-color="#00A1CC"/>
<stop offset="1" stop-color="#0E83A3"/>
</linearGradient>
<linearGradient id="paint7_linear_5277_17188" x1="18.0244" y1="53.8789" x2="18.0244" y2="67.3731" gradientUnits="userSpaceOnUse">
<stop stop-color="#00A1CC"/>
<stop offset="1" stop-color="#0E83A3"/>
</linearGradient>
<linearGradient id="paint8_linear_5277_17188" x1="18.0244" y1="41.1562" x2="18.0244" y2="54.6504" gradientUnits="userSpaceOnUse">
<stop stop-color="#00A1CC"/>
<stop offset="1" stop-color="#0E83A3"/>
</linearGradient>
<linearGradient id="paint9_linear_5277_17188" x1="18.0244" y1="28.4336" x2="18.0244" y2="41.9278" gradientUnits="userSpaceOnUse">
<stop stop-color="#00A1CC"/>
<stop offset="1" stop-color="#0E83A3"/>
</linearGradient>
<linearGradient id="paint10_linear_5277_17188" x1="18.0244" y1="18.6016" x2="18.0244" y2="29.2041" gradientUnits="userSpaceOnUse">
<stop stop-color="#00A1CC"/>
<stop offset="1" stop-color="#0E83A3"/>
</linearGradient>
<linearGradient id="paint11_linear_5277_17188" x1="73.5439" y1="66.5059" x2="73.5439" y2="80" gradientUnits="userSpaceOnUse">
<stop stop-color="#00A1CC"/>
<stop offset="1" stop-color="#0E83A3"/>
</linearGradient>
<linearGradient id="paint12_linear_5277_17188" x1="73.5439" y1="53.8789" x2="73.5439" y2="67.3731" gradientUnits="userSpaceOnUse">
<stop stop-color="#00A1CC"/>
<stop offset="1" stop-color="#0E83A3"/>
</linearGradient>
<linearGradient id="paint13_linear_5277_17188" x1="73.5439" y1="43.9512" x2="73.5439" y2="54.5537" gradientUnits="userSpaceOnUse">
<stop stop-color="#00A1CC"/>
<stop offset="1" stop-color="#0E83A3"/>
</linearGradient>
</defs>
</svg>
